assets/icons/bowtie/uE6AC-brand-windows.svg

<svg xmlns="http://www.w3.org/2000/svg" viewBox="0 0 448 448"><path d="M0 196h168v-160.825l-168 23.48v137.345zm196-164.734v164.734h224v-196l-224 31.266zm0 357.435l224 31.27v-195.971h-224v164.7zm-196-27.354l168 23.45v-160.797h-168v137.343z"/></svg>

<svg xmlns="http://www.w3.org/2000/svg" viewBox="0 0 448 448"><path d="M0 196h168V35.175L0 58.655V196zM196 31.266V196h224V0L196 31.266zm0 357.435l224 31.27V224H196v164.7zM0 361.347l168 23.45V224H0v137.343z"/></svg>
